Papirus/22x22/panel/megasync-status-syncing.svg

<?xml version="1.0" encoding="UTF-8" standalone="no"?>
<svg xmlns:dc="http://purl.org/dc/elements/1.1/" xmlns:cc="http://creativecommons.org/ns#" xmlns:rdf="http://www.w3.org/1999/02/22-rdf-syntax-ns#" xmlns:svg="http://www.w3.org/2000/svg" xmlns="http://www.w3.org/2000/svg" version="1.1" id="svg2" height="22" viewBox="0 0 6.208889 6.208889" width="22">
    <metadata id="metadata20">
        <rdf:RDF>
            <cc:Work rdf:about="">
                <dc:format>
                    image/svg+xml
                </dc:format>
                <dc:type rdf:resource="http://purl.org/dc/dcmitype/StillImage"/>
                <dc:title/>
            </cc:Work>
        </rdf:RDF>
    </metadata>
    <path id="path4" transform="scale(0.28222222,0.28222222)" d="M 11 3 C 6.5820001 3 3 6.5820001 3 11 C 3 12.606 3.4779688 14.097563 4.2929688 15.351562 L 6.9414062 10.048828 L 7 9.9257812 L 7 9.84375 L 6.1660156 9.3632812 L 6.6640625 8.4980469 C 6.7650625 8.3230469 6.88 8.1609531 7 8.0019531 C 7.976 6.7029531 9.5355938 5.9409531 11.183594 6.0019531 C 12.463594 6.0489531 13.440359 6.8944844 14.318359 7.7714844 L 17.705078 6.6464844 C 16.278078 4.4534844 13.812953 3.0019531 11.001953 3.0019531 L 11 3 z M 17.707031 6.6503906 L 15 12.076172 L 15 12.15625 L 15.833984 12.636719 L 15.335938 13.501953 C 15.234938 13.676953 15.12 13.839047 15 13.998047 C 14.024 15.297047 12.464406 16.059047 10.816406 15.998047 C 9.5364063 15.951047 8.5596406 15.105516 7.6816406 14.228516 L 4.296875 15.355469 C 5.723875 17.547469 8.1880469 19 10.998047 19 C 15.416047 19 18.998047 15.418 18.998047 11 C 18.998047 9.3949486 18.521152 7.9039309 17.707031 6.6503906 z M 11.146484 6.9980469 C 9.6674844 6.9430469 8.2732031 7.7140938 7.5332031 8.9960938 L 9.265625 9.9960938 C 9.637625 9.3530938 10.330266 8.9710469 11.072266 8.9980469 C 11.538266 9.0150469 11.960828 9.2079531 12.298828 9.5019531 L 11.021484 9.9277344 L 14.166016 11.501953 L 15.738281 8.3554688 L 14.349609 8.8183594 C 13.646609 7.7373594 12.455484 7.048 11.146484 7 L 11.146484 6.9980469 z M 7.8339844 10.498047 L 6.2636719 13.644531 L 7.6523438 13.181641 C 8.3553437 14.262641 9.5464688 14.952 10.855469 15 C 12.334469 15.055 13.72875 14.283953 14.46875 13.001953 L 12.736328 12.001953 C 12.364328 12.644953 11.671687 13.027 10.929688 13 C 10.463688 12.983 10.039172 12.792047 9.7011719 12.498047 L 10.978516 12.072266 L 7.8339844 10.498047 z " style="fill:#ffffff;opacity:1;fill-opacity:1;stroke:none;fill-rule:nonzero"/>
    <g id="g6" transform="matrix(0.28222222,0,0,0.28222222,-4.9598351,0.24694452)">
        <g id="g10" transform="matrix(0.42297932,0,0,0.42297932,-11.083711,3.1945516)">
<!--color: #004794-->
        </g>
    </g>
    <g id="g12" style="stroke-dasharray:none;stroke-opacity:1;stroke-miterlimit:4;stroke:#000;stroke-width:1" transform="matrix(0.28222222,0,0,0.28222222,-4.9598351,0.24694462)">
        <g id="g14" style="stroke:#000;stroke-width:2.364" transform="matrix(0.42297932,0,0,0.42297932,-11.083711,3.1945516)">
<!--color: #004794-->
        </g>
    </g>
</svg>

<?xml version="1.0" encoding="UTF-8" standalone="no"?>
<svg id="svg2" xmlns:rdf="http://www.w3.org/1999/02/22-rdf-syntax-ns#" xmlns="http://www.w3.org/2000/svg" height="22" viewBox="0 0 6.208889 6.208889" width="22" version="1.1" xmlns:cc="http://creativecommons.org/ns#" xmlns:dc="http://purl.org/dc/elements/1.1/">
 <metadata id="metadata20">
  <rdf:RDF>
   <cc:Work rdf:about="">
    <dc:format>image/svg+xml</dc:format>
    <dc:type rdf:resource="http://purl.org/dc/dcmitype/StillImage"/>
    <dc:title/>
   </cc:Work>
  </rdf:RDF>
 </metadata>
 <path id="path4" d="m11 3c-4.418 0-8 3.582-8 8 0 1.606 0.478 3.098 1.293 4.352l2.6484-5.303 0.0586-0.1232v-0.082l-0.834-0.4805 0.4981-0.8653c0.101-0.175 0.2159-0.337 0.3359-0.496 0.976-1.299 2.5356-2.061 4.184-2 1.28 0.047 2.256 0.8925 3.134 1.7695l3.387-1.125c-1.427-2.193-3.892-3.6445-6.703-3.6445l-0.002-0.002zm6.707 3.6504l-2.707 5.4256v0.08l0.834 0.481-0.498 0.865c-0.101 0.175-0.216 0.337-0.336 0.496-0.976 1.299-2.536 2.061-4.184 2-1.2796-0.047-2.2564-0.892-3.1344-1.769l-3.3847 1.126c1.427 2.192 3.8911 3.645 6.7011 3.645 4.418 0 8-3.582 8-8 0-1.6051-0.477-3.0961-1.291-4.3496zm-6.561 0.3476c-1.4785-0.055-2.8728 0.7161-3.6128 1.9981l1.7324 1c0.372-0.643 1.0644-1.0251 1.8064-0.9981 0.466 0.017 0.889 0.21 1.227 0.504l-1.278 0.4257 3.145 1.5743 1.572-3.1465-1.388 0.4629c-0.703-1.081-1.895-1.7704-3.204-1.8184v-0.002zm-3.312 3.5l-1.5703 3.147 1.3886-0.463c0.703 1.081 1.8942 1.77 3.2027 1.818 1.479 0.055 2.874-0.716 3.614-1.998l-1.733-1c-0.372 0.643-1.064 1.025-1.806 0.998-0.466-0.017-0.891-0.208-1.2288-0.502l1.2778-0.426-3.145-1.574z" transform="scale(.28222)" fill="#fff"/>
 <g id="g6" transform="matrix(.28222 0 0 .28222 -4.9598 .24694)">
  <g id="g10" transform="matrix(.42298 0 0 .42298 -11.084 3.1946)"><!--color: #004794--></g>
 </g>
 <g id="g12" transform="matrix(.28222 0 0 .28222 -4.9598 .24694)" stroke="#000">
  <g id="g14" stroke-width="2.364" stroke="#000" transform="matrix(.42298 0 0 .42298 -11.084 3.1946)"><!--color: #004794--></g>
 </g>
</svg>
